X: 1
T: Red Stockings
M: 9/8
L: 1/8
R: slip jig
K: Dmix
|: D | FGA D2 B AFD | FF/G/A D2 c B2 A |
FGA D2 B AFD | cBc E2 F G2 :|
A | d^cd D2 B AFD | d2 d A2 g f2 e |
[1 d^cd D2 B AF/E/D |c>Bc E2 F G2 :|
[2 def ee/f/d cBA | BdB A^GA c2 ||
